X: 9198
T: Damien's Toastie
R: reel
M: 4/4
K: Dmajor
|:A2AG F/G/AD2|d/e/fed cdA2|B2G/A/B AdDF|G/A/BAG FGE2|
A2AG FAD2|d/e/fed cdAd|B/c/dge fdcB|1 Agfe eddB:|2 Agfe edef||
|:g2ed cAA2|B/c/dcB BAFA|B3d A3d|B/c/dcd efgf|
f2fg e2ed|B/c/dcB BAFA|B2G/A/B AdDd|1 e/f/gfe edd/e/f:|2 e/f/gfe eddB||

